X:108
T:Little Black Fiy Jig
R:jig
C:Bruce Osborne - May 2002
Z:abc by bosborne@kos.net
M:6/8
L:1/8
K:Fmaj
AB|cAA FAF|CFA cBA|BGG EGE|CEG BAB|\
cAA FAF|CFA cBA|BGG EGE|CDE F:|
|:AB|caa Bgg|Aff fef|eGA BAB|gfd cAB|\
caa Bgg|Aff fef|eGA Bgf|ede f:|
